X: 1
T: Hills Of Ireland, The
M: 9/8
L: 1/8
R: slip jig
K: Emin
|: B2E EGE AFD | BGB cBA BGE | B2E EGE AFD | AB^c dcB AFD :|
|: E2e ef^d e2B | E2e e2^c dAF | E2e ef^d e2B | AB^c dcB AFD :|
